images/single-combat_theme_light.svg

<svg width="50" height="50" viewBox="0 0 50 50" fill="none" xmlns="http://www.w3.org/2000/svg">
<path fill-rule="evenodd" clip-rule="evenodd" d="M12.8392 50H38.8475L39.3164 40H12.3703L12.8392 50ZM27.5079 47.8592C29.7233 47.644 30.2191 47.2424 30.4177 45.5024C30.5556 44.2952 30.2206 43.2656 29.6295 43.0784C29.0645 42.8992 27.0058 42.9432 25.0552 43.176C22.1502 43.5232 21.4637 43.9208 21.2604 45.372C21.076 46.6864 21.5055 47.2688 22.9249 47.6304C23.9763 47.8984 26.0388 48.0016 27.5079 47.8592Z" fill="#0086FF"/>
<path d="M36.852 0H14.6882L12.3845 2.3384C10.6971 4.0512 10.0808 5.4424 10.0808 7.5384V10.4H14.7725C17.3528 10.4 20.3501 10.8096 21.4338 11.3112C22.5167 11.812 23.9881 13.4728 24.7029 15.0024C25.9024 17.5672 26.2161 17.748 28.7516 17.3304C30.264 17.0808 32.001 16.456 32.6126 15.9408C33.2242 15.4256 33.7246 13.788 33.7246 12.3024C33.7246 10.4336 34.0896 9.6 34.9068 9.6C35.7627 9.6 36.089 10.4928 36.089 12.836C36.089 15.2056 35.5712 16.5984 34.1542 18.036C32.6378 19.576 31.4028 20 28.4332 20C25.5116 20 24.4232 20.3624 23.6713 21.5848C22.8595 22.904 22.9596 23.608 24.2671 25.7848C25.1309 27.2232 25.8386 29.1888 25.8402 30.1528C25.8418 31.1168 25.5092 32.1152 25.1002 32.372C24.6919 32.628 23.6681 31.256 22.8256 29.3224C21.9823 27.3888 20.8214 25.5104 20.2453 25.1496C19.6691 24.788 17.9739 24.2896 16.4773 24.0432C14.9814 23.796 13.6092 23.1456 13.4296 22.5968C13.2049 21.9128 14.0829 21.6 16.2329 21.6C18.1315 21.6 20.0892 21.0032 21.2084 20.084C22.7949 18.7792 22.943 18.248 22.2645 16.284C21.4937 14.0528 21.3266 13.9944 15.0341 13.768C9.13106 13.556 8.51793 13.68 7.68724 15.2544C7.12688 16.3184 6.8849 19.8272 7.05198 24.4696C7.29552 31.2144 7.52015 32.1648 9.29265 33.9448C11.2291 35.8888 11.5049 35.9248 25.4162 36.0656C39.4212 36.2072 39.5812 36.1888 40.7847 34.3512C41.7628 32.8552 42 29.7816 42 18.5816V4.67041L36.852 0Z" fill="#0069B7"/>
</svg>

<svg width="50" height="50" fill="none" xmlns="http://www.w3.org/2000/svg"><path fill-rule="evenodd" clip-rule="evenodd" d="M12.84 50h26.008l.468-10H12.37l.47 10Zm14.668-2.14c2.215-.216 2.711-.618 2.91-2.358.138-1.207-.197-2.236-.788-2.424-.566-.179-2.624-.135-4.575.098-2.905.347-3.591.745-3.795 2.196-.184 1.314.245 1.897 1.665 2.258 1.051.268 3.114.372 4.583.23Z" fill="#0086FF"/><path d="M36.852 0H14.688l-2.304 2.338c-1.687 1.713-2.303 3.104-2.303 5.2V10.4h4.692c2.58 0 5.577.41 6.66.911 1.084.501 2.555 2.162 3.27 3.691 1.2 2.565 1.513 2.746 4.049 2.328 1.512-.25 3.249-.874 3.86-1.39.612-.514 1.113-2.152 1.113-3.638 0-1.868.365-2.702 1.182-2.702.856 0 1.182.893 1.182 3.236 0 2.37-.518 3.762-1.935 5.2-1.516 1.54-2.751 1.964-5.72 1.964-2.922 0-4.01.362-4.763 1.585-.811 1.319-.711 2.023.596 4.2.864 1.438 1.572 3.404 1.573 4.368.002.964-.33 1.962-.74 2.219-.408.256-1.432-1.116-2.274-3.05-.844-1.933-2.005-3.812-2.58-4.172-.577-.362-2.272-.86-3.769-1.107-1.496-.247-2.868-.897-3.047-1.446-.225-.684.653-.997 2.803-.997 1.898 0 3.856-.597 4.975-1.516 1.587-1.305 1.735-1.836 1.057-3.8-.771-2.231-.938-2.29-7.23-2.516-5.904-.212-6.517-.088-7.348 1.486-.56 1.064-.802 4.573-.635 9.216.244 6.744.468 7.695 2.24 9.475 1.937 1.944 2.213 1.98 16.124 2.12 14.005.142 14.165.124 15.369-1.714.978-1.496 1.215-4.57 1.215-15.77V4.672L36.852 0Z" fill="#0069B7"/></svg>
